images/dist/getStart/Vector-1.svg

<svg width="30" height="40" viewBox="0 0 30 40" fill="none" xmlns="http://www.w3.org/2000/svg">
<path d="M29.5157 13.1172C28.875 12 27.711 11.3281 26.4219 11.3281H19.0469L21.2891 4.49219C21.5782 3.41406 21.3516 2.28125 20.6719 1.39062C19.9844 0.507812 18.9454 0 17.8282 0H7.63286C5.85161 0 4.32817 1.33594 4.13286 2.89844L0.0391104 19.4766C-0.109327 20.5547 0.210985 21.6406 0.921923 22.4609C1.63286 23.2812 2.66411 23.75 3.75005 23.75H11.4141L8.68755 35.6016C8.43755 36.6719 8.67974 37.7812 9.35942 38.6406C10.0391 39.5078 11.0625 40 12.1641 40C13.4375 40 14.625 39.3125 15.1954 38.3125L29.5079 16.6953C30.1641 15.5781 30.1641 14.2344 29.5157 13.1172ZM12.5079 35.7344L16.125 20H3.71099L7.63286 3.75L17.6016 3.67969L13.8672 15.0781H26.0938L12.5079 35.7344Z" fill="url(#paint0_linear)"/>
<defs>
<linearGradient id="paint0_linear" x1="0.00354004" y1="18.9474" x2="30.0149" y2="19.1683" gradientUnits="userSpaceOnUse">
<stop stop-color="#4A5DEA"/>
<stop offset="1" stop-color="#914AFF"/>
</linearGradient>
</defs>
</svg>

<svg width="30" height="40" fill="none" xmlns="http://www.w3.org/2000/svg"><path d="M29.516 13.117a3.538 3.538 0 0 0-3.094-1.789h-7.375l2.242-6.836A3.563 3.563 0 0 0 17.83 0H7.632c-1.781 0-3.305 1.336-3.5 2.898L.039 19.477a3.767 3.767 0 0 0 .883 2.984A3.74 3.74 0 0 0 3.75 23.75h7.664L8.688 35.602a3.566 3.566 0 0 0 .671 3.039A3.538 3.538 0 0 0 12.164 40c1.274 0 2.461-.688 3.031-1.688l14.313-21.617a3.516 3.516 0 0 0 .008-3.578zM12.508 35.734 16.125 20H3.711L7.633 3.75l9.969-.07-3.735 11.398h12.227L12.508 35.734z" fill="url(#a)"/><defs><linearGradient id="a" x1=".004" y1="18.947" x2="30.015" y2="19.168" gradientUnits="userSpaceOnUse"><stop stop-color="#4A5DEA"/><stop offset="1" stop-color="#914AFF"/></linearGradient></defs></svg>
